Obsidian/actions/16s/mergecell-vertical.svg

<svg viewBox="0 0 16 16" xmlns="http://www.w3.org/2000/svg"><path d="m2 2v12h1 6 1 3 1v-12zm1 1h2v2h-2zm3 0h3v2h-3zm4 0h1 1 1v2h-1-1-1zm-7 3h2v3h-2zm3 0h3v7h-3v-3-1zm4 0h3v3 1 3h-3zm-7 4h2v3h-2z" fill="#f2f2f2"/></svg>

<svg xmlns="http://www.w3.org/2000/svg" viewBox="0 0 16 16">
  <defs id="defs3051">
    <style type="text/css" id="current-color-scheme">
      .ColorScheme-Text {
        color:#f2f2f2;
      }
      </style>
  </defs>
 <path style="fill:currentColor;fill-opacity:1;stroke:none" 
     d="M 2 2 L 2 14 L 3 14 L 9 14 L 10 14 L 13 14 L 14 14 L 14 2 L 2 2 z M 3 3 L 5 3 L 5 5 L 3 5 L 3 3 z M 6 3 L 9 3 L 9 5 L 6 5 L 6 3 z M 10 3 L 11 3 L 12 3 L 13 3 L 13 5 L 12 5 L 11 5 L 10 5 L 10 3 z M 3 6 L 5 6 L 5 9 L 3 9 L 3 6 z M 6 6 L 9 6 L 9 13 L 6 13 L 6 10 L 6 9 L 6 6 z M 10 6 L 13 6 L 13 9 L 13 10 L 13 13 L 10 13 L 10 6 z M 3 10 L 5 10 L 5 13 L 3 13 L 3 10 z "
     class="ColorScheme-Text"
     />
</svg>
